src/img/new-site/icon_fb2.svg

<?xml version="1.0" encoding="UTF-8"?>
<svg width="24px" height="24px" viewBox="0 0 24 24" version="1.1" xmlns="http://www.w3.org/2000/svg" xmlns:xlink="http://www.w3.org/1999/xlink">
    <!-- Generator: Sketch 42 (36781) - http://www.bohemiancoding.com/sketch -->
    <title>icon_fb</title>
    <desc>Created with Sketch.</desc>
    <defs></defs>
    <g id="Page-1" stroke="none" stroke-width="1" fill="none" fill-rule="evenodd">
        <g id="Artboard-Copy" transform="translate(-587.000000, -2194.000000)" fill="#FFFFFF">
            <g id="Group-18" transform="translate(0.000000, 2073.000000)">
                <g id="Group-16" transform="translate(211.000000, 20.000000)">
                    <g id="Group-17" transform="translate(332.000000, 0.000000)">
                        <g id="Group-12">
                            <g id="Group-2" transform="translate(40.000000, 97.000000)">
                                <g id="icon_fb" transform="translate(4.000000, 4.000000)">
                                    <path d="M13.2034286,13.0698692 L15.552,13.0698692 L15.9051429,10.4367263 L13.2034286,10.4367263 L13.2034286,8.74758345 C13.2034286,7.98301202 13.416,7.46186917 14.552,7.46186917 L16,7.46186917 L16,5.09958345 C15.2985259,5.03061768 14.5939938,4.99743181 13.8891429,5.00015488 C11.8011429,5.00015488 10.3714286,6.22529774 10.3714286,8.48586917 L10.3714286,10.4367263 L8,10.4367263 L8,13.0698692 L10.3714286,13.0698692 L10.3714286,19.8572977 L13.2034286,19.8572977 L13.2034286,13.0698692 L13.2034286,13.0698692 Z" id="Shape"></path>
                                </g>
                            </g>
                        </g>
                    </g>
                </g>
            </g>
        </g>
    </g>
</svg>

<svg width="24" height="24" viewBox="0 0 24 24" xmlns="http://www.w3.org/2000/svg"><title>icon_fb</title><path d="M13.203 13.07h2.349l.353-2.633h-2.702v-1.69c0-.764.213-1.285 1.349-1.285H16V5.1a20.754 20.754 0 0 0-2.11-.1C11.8 5 10.37 6.225 10.37 8.486v1.95H8v2.634h2.371v6.787h2.832V13.07z" fill="#FFF" fill-rule="evenodd"/></svg>
